X: 14198
T: Fruity Nutcake, The
R: reel
M: 4/4
K: Amajor
|:c2BA ceea|fedf ecAG|FBBc dcBA|GAFG Eeed|
c2Bc Aeea|bafb afec|dBcd eafd|cABG A4:|
|:B2cd BfdB|bafb afed|eccd e=gfe|dcBd cF=GF|
B2cd eBcd|Bcde fefg|bafb afed|cABG A4:|

